Papirus/22x22/panel/workrave-indicator-suspended.svg

<?xml version="1.0" encoding="UTF-8" standalone="no"?>
<svg xmlns:dc="http://purl.org/dc/elements/1.1/" xmlns:cc="http://creativecommons.org/ns#" xmlns:rdf="http://www.w3.org/1999/02/22-rdf-syntax-ns#" xmlns:svg="http://www.w3.org/2000/svg" xmlns="http://www.w3.org/2000/svg" version="1.0" width="22" height="22" id="svg2817">
    <metadata id="metadata57">
        <rdf:RDF>
            <cc:Work rdf:about="">
                <dc:format>
                    image/svg+xml
                </dc:format>
                <dc:type rdf:resource="http://purl.org/dc/dcmitype/StillImage"/>
                <dc:title/>
            </cc:Work>
        </rdf:RDF>
    </metadata>
    <path id="path4350" d="M 3.2226562 1.8066406 L 1.8066406 3.2226562 L 18.777344 20.193359 L 20.193359 18.777344 L 3.2226562 1.8066406 z M 11 3 A 4 4 0 0 0 7.6484375 4.8203125 L 9 6.171875 L 9 6 L 10 6 L 10 5 L 12 5 L 12 6 L 13 6 L 13 8 L 12 8 L 12 9 L 11.828125 9 L 13.177734 10.349609 A 4 4 0 0 0 15 7 A 4 4 0 0 0 11 3 z M 10.205078 13.033203 C 3.0219318 13.374628 3 18.144531 3 18.144531 L 3 19 L 16.171875 19 L 10.205078 13.033203 z " style="color:#000000;text-indent:0;text-decoration:none;text-decoration-line:none;text-transform:none;block-progression:tb;fill:#ffffff;fill-opacity:1;opacity:1"/>
    <g transform="translate(-39.548917,-10.213014)" id="g4146" style="fill:none;fill-opacity:1">
        <path d="m 30.565,21.238 1.414,1.414 -1.793,1.793 5.172,0 0,2 -5.172,0 1.793,1.793 -1.414,1.414 -4.207,-4.207 z" style="opacity:1;fill:none;fill-opacity:1;fill-rule:nonzero;stroke:none" id="path4148"/>
    </g>
    <path id="path4410" d="M 15.414062,13.929688 14,15.34375 16.123047,17.464844 14,19.587891 15.414062,21 17.535156,18.878906 19.658203,21 l 1.412109,-1.412109 -2.121093,-2.123047 2.121093,-2.121094 -1.412109,-1.414062 -2.123047,2.123046 -2.121094,-2.123046 z" style="opacity:1;fill:none;fill-opacity:1;stroke:none;stroke-width:2;stroke-linecap:round;stroke-linejoin:round;stroke-miterlimit:4;stroke-dasharray:none;stroke-opacity:1"/>
</svg>

<?xml version="1.0" encoding="UTF-8" standalone="no"?>
<svg id="svg2817" xmlns:rdf="http://www.w3.org/1999/02/22-rdf-syntax-ns#" xmlns="http://www.w3.org/2000/svg" height="22" width="22" version="1.0" xmlns:cc="http://creativecommons.org/ns#" xmlns:dc="http://purl.org/dc/elements/1.1/">
 <metadata id="metadata57">
  <rdf:RDF>
   <cc:Work rdf:about="">
    <dc:format>image/svg+xml</dc:format>
    <dc:type rdf:resource="http://purl.org/dc/dcmitype/StillImage"/>
    <dc:title/>
   </cc:Work>
  </rdf:RDF>
 </metadata>
 <path id="path4350" style="color:#000000;block-progression:tb;text-decoration-line:none;text-transform:none;text-indent:0" d="m3.2227 1.8066l-1.4161 1.4161 16.97 16.97 1.416-1.416-16.97-16.97zm7.7773 1.1934a4 4 0 0 0 -3.3516 1.8203l1.3516 1.3516v-0.1719h1v-1h2v1h1v2h-1v1h-0.172l1.35 1.35a4 4 0 0 0 1.822 -3.35 4 4 0 0 0 -4 -4zm-0.795 10.033c-7.1831 0.342-7.205 5.112-7.205 5.112v0.855h13.172l-5.967-5.967z" fill="#fff"/>
 <g id="g4146" fill="none" transform="translate(-39.549 -10.213)">
  <path id="path4148" fill="none" d="m30.565 21.238 1.414 1.414-1.793 1.793h5.172v2h-5.172l1.793 1.793-1.414 1.414-4.207-4.207z"/>
 </g>
 <path id="path4410" fill="none" d="m15.414 13.93-1.414 1.414 2.123 2.121-2.123 2.123 1.414 1.412 2.121-2.121 2.123 2.121l1.4121-1.4121-2.1211-2.123 2.1211-2.1211-1.4121-1.4141-2.123 2.123-2.1211-2.123z"/>
</svg>
